X:7854
T:Tantoli
C:anon.
O:Sweden
Z:Transcribed by Frank Nordberg - http://www.musicaviva.com
F:http://abc.musicaviva.com/tunes/sweden/tantoli.abc
M:2/4
L:1/16
K:G
"G"G2(Bd) G2(Bd)|"D7"(dcAc) B2d2|"D7"D2(FA) D2(FA)|"D7"(cBAB) "G"G4:|
|:"G"GABc d2ef|"G"g2B2 e2d2|"D7"(dcBc) "G"B2d2|[1"D7"A2d2 "G"(B2G2):|[2"D7"A2d2 "G"G4|]
W:
W:
W:  From Musica Viva - http://www.musicaviva.com
W:  the Internet center for free sheet music downloads.

